lib/radiotmp/nrk-list-expressive--active.svg

<svg width="24" height="24" viewBox="0 0 24 24" fill="none" xmlns="http://www.w3.org/2000/svg">
<path d="M22 6C22 4.89543 21.1046 4 20 4H4C2.89543 4 2 4.89543 2 6C2 7.10457 2.89543 8 4 8H20C21.1046 8 22 7.10457 22 6Z" fill="black"/>
<path d="M2 12C2 10.8954 2.89543 10 4 10H20C21.1046 10 22 10.8954 22 12C22 13.1046 21.1046 14 20 14H4C2.89543 14 2 13.1046 2 12Z" fill="black"/>
<path d="M2 18C2 16.8954 2.89543 16 4 16H20C21.1046 16 22 16.8954 22 18C22 19.1046 21.1046 20 20 20H4C2.89543 20 2 19.1046 2 18Z" fill="black"/>
</svg>

<svg xmlns="http://www.w3.org/2000/svg" viewBox="0 0 24 24"><path fill="#000" d="M22 6a2 2 0 0 0-2-2H4a2 2 0 1 0 0 4h16a2 2 0 0 0 2-2ZM2 12a2 2 0 0 1 2-2h16a2 2 0 1 1 0 4H4a2 2 0 0 1-2-2ZM2 18a2 2 0 0 1 2-2h16a2 2 0 1 1 0 4H4a2 2 0 0 1-2-2Z"/></svg>
